static/logos/draftbit-glyph-color.svg

<svg width="50" height="54" viewBox="0 0 50 54" fill="none" xmlns="http://www.w3.org/2000/svg">
<g clip-path="url(#clip0_1_2956)">
<path d="M28.7617 0.983186L45.9812 10.6461C48.384 11.9944 49.8699 14.5234 49.8699 17.2647V36.3068C49.8699 39.048 48.384 41.577 45.9812 42.9254L28.7617 52.5882C26.4257 53.8991 23.5692 53.8991 21.233 52.5882L4.01369 42.9254C1.61086 41.577 0.125 39.048 0.125 36.3068V17.2647C0.125 14.5234 1.61086 11.9944 4.01369 10.6461L21.233 0.983186C23.5692 -0.327729 26.4257 -0.327729 28.7617 0.983186ZM2.99491 17.3418V36.3068C2.99491 38.0086 3.91899 39.5814 5.41816 40.4227L22.393 49.9482C22.6128 50.0334 22.8471 50.0775 23.0842 50.0775C24.1408 50.0775 24.9974 49.2209 24.9974 48.1643V32.8354C24.9974 30.3371 23.6069 28.0466 21.3905 26.8941L20.1269 26.2371C19.8289 26.1102 19.5346 25.9712 19.2449 25.82L2.99491 17.3418ZM20.7974 24.1238C23.8474 25.715 26.1557 25.715 29.2057 24.1238L45.691 14.8689C45.2851 13.9394 44.581 13.1463 43.6599 12.6293L27.3574 3.48595C25.8937 2.66455 24.1012 2.66455 22.6374 3.48595L6.36594 12.6293C5.44478 13.1463 4.74076 13.9394 4.3348 14.8689L20.7974 24.1238ZM24.9974 6.69643C28.5848 6.69643 31.5133 8.4595 31.6858 10.6749L31.6939 14.4691C31.6939 16.7805 28.6958 18.6543 24.9974 18.6543C21.299 18.6543 18.301 16.7805 18.301 14.4691V10.6749C18.4815 8.4595 21.4101 6.69643 24.9974 6.69643ZM24.9982 13.3929C28.1048 13.3929 30.6232 12.1337 30.6232 10.5804C30.6232 9.02705 28.1048 7.76786 24.9982 7.76786C21.8915 7.76786 19.3732 9.02705 19.3732 10.5804C19.3732 12.1337 21.8915 13.3929 24.9982 13.3929Z" fill="#5A45FF"/>
</g>
<defs>
<clipPath id="clip0_1_2956">
<rect width="50" height="53.5714" fill="white"/>
</clipPath>
</defs>
</svg>

<svg xmlns="http://www.w3.org/2000/svg" width="59.259" height="64" fill="none" viewBox="0 0 50 54"><g clip-path="url(#a)"><path fill="#5A45FF" d="m28.762.983 17.22 9.663a7.593 7.593 0 0 1 3.888 6.619v19.042a7.593 7.593 0 0 1-3.889 6.618l-17.22 9.663a7.698 7.698 0 0 1-7.528 0l-17.22-9.663a7.593 7.593 0 0 1-3.888-6.618V17.265a7.593 7.593 0 0 1 3.889-6.619L21.233.983a7.698 7.698 0 0 1 7.529 0ZM2.995 17.342v18.965c0 1.702.924 3.274 2.423 4.116l16.975 9.525a1.912 1.912 0 0 0 2.604-1.784V32.835a6.696 6.696 0 0 0-3.607-5.94l-1.263-.658a12.44 12.44 0 0 1-.882-.417l-16.25-8.478Zm17.802 6.782c3.05 1.591 5.359 1.591 8.409 0l16.485-9.255a4.749 4.749 0 0 0-2.031-2.24L27.357 3.486a4.828 4.828 0 0 0-4.72 0L6.366 12.629a4.749 4.749 0 0 0-2.031 2.24l16.462 9.255Zm4.2-17.428c3.588 0 6.516 1.764 6.689 3.979l.008 3.794c0 2.312-2.998 4.185-6.697 4.185-3.698 0-6.696-1.873-6.696-4.185v-3.794c.18-2.216 3.11-3.979 6.696-3.979Zm.001 6.697c3.107 0 5.625-1.26 5.625-2.813 0-1.553-2.518-2.812-5.625-2.812s-5.625 1.259-5.625 2.812c0 1.554 2.518 2.813 5.625 2.813Z"/></g><defs><clipPath id="a"><path fill="#fff" d="M0 0h50v53.571H0z"/></clipPath></defs></svg>
